X: 27
T:John Bagnall's Hornpipe,aka. FK.27
M:C
L:1/8
Q:160
C:"MS 40 p 38"
S:Kidson's H'pipe MS,early 20thC.
R:Hornpipe
O:England
A:Leeds
N:No name in MS.My title.CGP
Z:vmp.John Bagnall
K:B_
BFDF BcdB | cAFA cdec | fdfd gege | dfBd cAGF |!
 BFDF BcdB | cAFA cdec | fdfd gege | dcBA B2 B2 ||!
de | fdfd Bbag | fdfd B2 cd | efgf edcB | A2 F2 F2 ((3FGA) |!
 BFDF BcdB | cAFA cdec | fdfd gecA | B2 B2 B2 ||
